X:1
T:Thou Art Coming
T:Thou Art Coming
T:John Millard Harris
T:Franklin Edson Belden, 1906
T:Public Domain Courtesy of the Cyber Hymnal™
T:Public Domain Courtesy of the Cyber Hymnal™
C:John Millard Harris
Z:Public Domain
Z:Courtesy of the Cyber Hymnal™
%%score ( 1 2 ) ( 3 4 )
L:1/8
Q:1/4=90
M:4/4
K:Ab
V:1 treble 
V:2 treble 
V:3 bass 
V:4 bass 
V:1
 [CE][CA] | [Ec][Ec][Ec][Ec] [Ec]<[Ec] [EB][EA] | [DF][FA] [FA]>[DF] [CE]2 [EA][EB] | %3
w: 1.~Thou art|com- ing, my Be- lov- èd, Thou art|com- ing once a- gain; Not a|
w: 2.~We are|wait- ing, we are watch- ing, For the|com- ing of Thy feet, With our|
w: 3.~Bless- èd|hope that makes the de- sert Now to|blos- som as the rose; In the|
 [Ec][Ec][Ec][DB] [CA]<[CA] [DG][CA] | [=Dc][DB] [DB]>[DA] [EB]2 [EA][EB] | %5
w: man of tears and sor- rows, But a|king of kings to reign; And to|
w: hearts a- flame with glo- ry, Wait- ing|at the mer- cy seat; And tho’|
w: rough and rug- ged plac- es, Still our|hearts doth find re- pose, In the|
 [Ec][Ee][Ae][Af] [Ae]<[Ec] [EA][EB] | [Ec][Ec] [Ec]>[Fd] [Ec]2 [EA]E | %7
w: rule in re- gal splen- dor Where such|sor- row pierced Thy heart, Can it|
w: winds and waves chas- tise us, While on|life’s tem- pest- uous sea, We would|
w: hope that we shall see Thee, And shall|lean up- on Thy breast, And then|
 [DF][EG][FA][Af] [Ae]<!fermata![Ec] [EA][FB] | [Ec][Ec] !fermata![Ec]>[DB] [CA]2 |:"^Refrain" cB | %10
w: be, Thou best Be- lov- èd, Com- ing,|ne- ver to de- part?||
w: sure- ly sink and per- ish But for|hope of see- ing Thee.|We are|
w: reign with Thee for- ev- er In the|land of per- fect rest.||
 c4- [Ec]3/2BA x/ | A4- [FA]3/2[EG][DF] x/ |1 [CE]<[CA] [EA][EB] [Ec]<[Ec] [EB][=DA] | %13
w: |||
w: wai- ting, we are|* watch- ing, We|* are wai- ting, we are watch- ing,|
w: |||
 [Ec]<[EB] [EB]>[E=A] [EB]2 :|2 [CE]<[CA] [EA][EB] [Ec]<[Ec] [EA][FB] || %15
w: ||
w: For the com- ing of|the Lord; wai- ting, we are watch- ing,|
w: ||
 [Ec]<[Ec] !fermata![Ec]>[DB] !fermata![CA]2 |] %16
w: |
w: For the com- ing of|
w: |
V:2
 x2 | x8 | x8 | x8 | x8 | x8 | x7 E | x8 | x6 |: x2 | A2 E E E/ x7/2 | F2 F F F/ x7/2 |1 x8 | %13
 x6 :|2 x8 || x6 |] %16
V:3
 [A,,A,][A,,A,] | [A,,A,][A,,A,][A,,A,][A,,A,] [A,,A,]<[A,,A,] [B,,G,][C,A,] | %2
w: ~ ~|~ ~ ~ ~ ~ ~ ~ ~|
 [D,A,][D,D] [D,D]>[D,A,] [A,,A,]2 [C,A,][E,G,] | A,A,A,[E,G,] [F,A,]<[F,A,] [E,B,][F,A,] | %4
w: ~ ~ ~ ~ ~ ~ ~|~ ~ ~ ~ ~ ~ ~ ~|
 [B,,A,][B,,A,] [B,,A,]>[B,,A,] G,2 [C,A,][C,G,] | [A,,A,][A,,C][A,C][A,D] [A,C]<A, [C,A,][E,G,] | %6
w: ~ ~ ~ ~ ~ ~ ~|~ ~ ~ ~ ~ ~ ~ ~|
 A,A, A,>A, A,2 [C,A,][C,A,] | [D,A,][D,A,][D,A,][D,D] [A,C]<!fermata!A, [D,A,][E,A,] | %8
w: ~ ~ ~ ~ ~ ~ ~|~ ~ ~ ~ ~ ~ ~ ~|
 [E,A,]!fermata![E,A,] [E,A,]>E, [A,,E,]2 |: z2 | z2 [A,,A,][A,,A,] [A,,A,]<[A,,A,] z2 | %11
w: ~ ~ ~ ~ ~||We are wait- ing,|
 z2 [D,A,][D,A,] [D,A,]<[D,A,] [D,A,][D,A,] |1 [A,,A,]<[A,,A,] [C,A,][E,G,] A,<A, [G,B,][F,B,] | %13
w: We are watc- ing, * *||
 [E,G,]<[E,G,] [E,G,]>[E,^F,] [E,G,]2 :|2 %14
w: |
 [A,,A,]<[A,,A,] [C,A,][E,G,] A,<!fermata![A,C] [C,A,][D,A,] || %15
w: |
 [E,A,]<[E,A,] !fermata![E,A,]>E, !fermata![A,,E,]2 |] %16
w: |
V:4
 x2 | x8 | x8 | A,A,A, x5 | x4 (E,D,) x2 | x9/2 A,3/2 x2 | A,A, A,>A, A,2 x2 | x9/2 A,3/2 x2 | %8
 x7/2 E,/ x2 |: x2 | x8 | x8 |1 x4 A,<A, x2 | x6 :|2 x4 A,/ x7/2 || x7/2 E,/ x2 |] %16

